X:1
T:They Shall Be Comforted
T:They Shall Be Comforted
T:William James Kirkpatrick
T:Eliza Edmunds Hewitt, 1900
T:Public Domain Courtesy of the Cyber Hymnal™
T:Public Domain Courtesy of the Cyber Hymnal™
C:William James Kirkpatrick
Z:Public Domain
Z:Courtesy of the Cyber Hymnal™
%%score ( 1 2 ) 3
L:1/8
Q:1/4=130
M:6/4
K:Bb
V:1 treble 
V:2 treble 
V:3 bass 
V:1
 [DF]2 [B,D]2 [CE]2 [EG]3 [DF] [DF]2 | [DB]2 [FA]2 [EG]2 [DF]6 | %2
w: 1.~They shall be com- fort- ed,|sor- row- ing heart;|
w: 2.~They shall be com- fort- ed,|Je- sus says so;|
w: 3.~They shall be com- fort- ed,|yea, ev- en here;|
w: 4.~They shall be com- fort- ed,|rise, then, and shine;|
 [EG]2 [EA]2 [EB]2 [=EB]3 [EA] [EB]2 | [Gd]2 [Gc]2 [Gc]2 [Fc]6 | %4
w: Soon ev- ery cloud will for-|ev- er de- part;|
w: True and e- ter- nal His|prom- ise, we know;|
w: Bless- èd the mourn- er whom|Je- sus shall cheer;|
w: Shine in the beau- ty of|love so di- vine;|
 [Fd]2 [=E^c]2 [Fd]2 [DB]4 [DF][DF] | [EG]2 [GB]2 [Ge]2 [Fd]6 | %6
w: Joy, won- drous joy, in that|beau- ti- ful day,|
w: Gen- tle His smile, and how|ten- der His voice,|
w: Sun- beams of glo- ry thro’|times fleet- ing showers,|
w: Let oth- ers find where the|“still wa- ters” flow,|
 [^Fd]2 [Fc]2 [DB]2 [Ec]2 [EB]2 [EG]2 | [DF]2 [CF]2 [CE]2 [B,D]6 | %8
w: When God shall wipe ev- ery|tear- drop a- way,|
w: Bid- ding His child- ren in|Him to re- joice,|
w: Hea- ven a- round us— this|Sav- ior is ours!|
w: They may be com- fort- ed,|Je- sus says so;|
 F2 [FB]2 [F_Ad]2 [Gd]2 [Gc]2 [EG]2 | [EA]2 [DB]2 [Ec]2 [DB]6 || %10
w: When God shall wipe ev- ery|tear- drop a- way.|
w: Bid- ding His child- ren in|Him to re- joice.|
w: Hea- ven a- round us— this|Sav- ior is ours!|
w: They may be com- fort- ed,|Je- sus says so.|
"^Refrain" [DF]2 [DF]2 [DF]2 [^CG]2 [DF]2 z2 | [FB]2 [=EB]2 [_EB]2 [DB]4 z2 | %12
w: ||
w: ||
w: ||
w: ||
 [Fc]2 [Fc]2 [Ac]2 [Gd]2 [Ac]2 z2 | [=Ec]2 [EG]2 [EB]2 [FA]4 z2 | F2 [=EG]2 [_EA]2 [DB]3 F F2 | %15
w: |||
w: |||
w: |||
w: |||
 [DB]2 [GB]2 [Gc]2 [^Fd]6 | [Ge]2 [Gd]2 [Gc]2 [FB]3 [EA] [DB]2 | [=Ec]2 [EG]2 [_EA]2 [DB]6 |] %18
w: |||
w: |||
w: |||
w: |||
V:2
 x12 | x12 | x12 | x12 | x12 | x12 | x12 | x12 | F2 x10 | x12 || x12 | x12 | x12 | x12 | %14
 F2 x5 F F2 x2 | x12 | x12 | x12 |] %18
V:3
 [B,,B,]2 [B,,F,]2 [B,,F,]2 [B,,B,]3 [B,,B,] [B,,B,]2 | [B,,F,]2 [B,,F,]2 [B,,B,]2 [B,,B,]6 | %2
w: ~ ~ ~ ~ ~ ~|~ ~ ~ ~|
 [E,B,]2 [E,A,]2 [E,G,]2 [C,G,]3 [C,G,] [C,G,]2 | [=E,B,]2 [E,B,]2 [E,B,]2 [F,A,]6 | %4
w: ~ ~ ~ ~ ~ ~|~ ~ ~ ~|
 [B,,B,]2 [B,,B,]2 [B,,B,]2 [B,,F,]4 [B,,B,][B,,B,] | [E,B,]2 [E,B,]2 [E,B,]2 [B,,B,]6 | %6
w: ~ ~ ~ ~ ~ ~|~ ~ ~ ~|
 [D,A,]2 [D,A,]2 [G,B,]2 [E,G,]2 [E,G,]2 [E,B,]2 | [F,B,]2 [F,A,]2 [^F,A,]2 [G,B,]6 | %8
w: ~ ~ ~ ~ ~ ~|~ ~ ~ ~|
 [D,B,]2 [D,B,]2 [D,B,]2 [E,B,]2 [E,B,]2 [E,C]2 | [F,C]2 [F,B,]2 [F,A,]2 [B,,F,B,]6 || %10
w: ~ ~ ~ ~ ~ ~|~ ~ ~ ~|
 [B,,B,]2 [B,,F,]2 [B,,B,]2 [B,,=E,]2 [B,,F,]2 z2 | [B,,_A,]2 [B,,G,]2 [B,,_G,]2 [B,,F,]4 z2 | %12
w: Nev- er a sor- row,|nev- er a fear,|
 [F,A,]2 [F,A,]2 [F,C]2 [F,=B,]2 [F,C]2 z2 | [C,C]2 [C,C]2 [C,C]2 [F,C]4 z2 | %14
w: Nev- er a sha- dow,|nev- er a tear;|
 [F,A,]2 [F,B,]2 [F,C]2 [G,B,]3 [D,B,] [D,B,]2 | [G,B,]2 [G,B,]2 [E,G,]2 [D,A,]6 | %16
w: They shall be com- fort- ed|in that sweet day,|
 [C,C]2 [D,=B,]2 [E,C]2 [F,D]3 [^F,C] [G,B,]2 | [C,G,]2 [C,C]2 [F,C]2 [B,,B,]6 |] %18
w: When God shall wipe ev- ery|tear- drop a- way.|

